azure-patterns/svg-devops-capture-data.svg

<svg xmlns="http://www.w3.org/2000/svg" viewBox="0 0 80 80">
                                
                            
    <rect width="80" height="80" fill="black" fill-opacity="0"></rect>
    <circle cx="40" cy="40" r="40" fill="#854CC7" fill-opacity="0.05"></circle>
    <path d="M47 38C48.2396 38 49.4062 38.2396 50.5 38.7188C51.5938 39.1875 52.5469 39.8281 53.3594 40.6406C54.1719 41.4531 54.8125 42.4062 55.2812 43.5C55.7604 44.5938 56 45.7604 56 47C56 48.2396 55.7604 49.4062 55.2812 50.5C54.8125 51.5938 54.1719 52.5469 53.3594 53.3594C52.5469 54.1719 51.5938 54.8177 50.5 55.2969C49.4062 55.7656 48.2396 56 47 56C45.7604 56 44.5938 55.7656 43.5 55.2969C42.4062 54.8177 41.4531 54.1719 40.6406 53.3594C39.8281 52.5469 39.1823 51.5938 38.7031 50.5C38.2344 49.4062 38 48.2396 38 47C38 45.7604 38.2344 44.5938 38.7031 43.5C39.1823 42.4062 39.8281 41.4531 40.6406 40.6406C41.4531 39.8281 42.4062 39.1875 43.5 38.7188C44.5938 38.2396 45.7604 38 47 38ZM48 54.4375C48.8438 54.3125 49.6302 54.0677 50.3594 53.7031C51.0885 53.3281 51.7344 52.8594 52.2969 52.2969C52.8594 51.7344 53.3229 51.0885 53.6875 50.3594C54.0625 49.6302 54.3125 48.8438 54.4375 48H52V46H54.4375C54.3125 45.1562 54.0625 44.3698 53.6875 43.6406C53.3229 42.9115 52.8594 42.2656 52.2969 41.7031C51.7344 41.1406 51.0885 40.6771 50.3594 40.3125C49.6302 39.9375 48.8438 39.6875 48 39.5625V42H46V39.5625C45.1562 39.6875 44.3698 39.9375 43.6406 40.3125C42.9115 40.6771 42.2656 41.1406 41.7031 41.7031C41.1406 42.2656 40.6719 42.9115 40.2969 43.6406C39.9323 44.3698 39.6875 45.1562 39.5625 46H42V48H39.5625C39.6875 48.8438 39.9323 49.6302 40.2969 50.3594C40.6719 51.0885 41.1406 51.7344 41.7031 52.2969C42.2656 52.8594 42.9115 53.3281 43.6406 53.7031C44.3698 54.0677 45.1562 54.3125 46 54.4375V52H48V54.4375ZM45 47C45 46.6042 45.1042 46.2396 45.3125 45.9062C45.5312 45.5729 45.8177 45.3281 46.1719 45.1719L51 43L48.8281 47.8281C48.6719 48.1823 48.4271 48.4688 48.0938 48.6875C47.7604 48.8958 47.3958 49 47 49C46.7188 49 46.4583 48.9479 46.2188 48.8438C45.9792 48.7396 45.7656 48.599 45.5781 48.4219C45.401 48.2344 45.2604 48.0208 45.1562 47.7812C45.0521 47.5417 45 47.2812 45 47ZM36 47.25C36 48.1042 36.0938 48.9427 36.2812 49.7656C36.4688 50.5781 36.7396 51.3594 37.0938 52.1094C37.4479 52.849 37.8854 53.5521 38.4062 54.2188C38.9271 54.875 39.5156 55.4688 40.1719 56H29.5312C29.1146 56 28.724 55.9219 28.3594 55.7656C27.9948 55.6094 27.6719 55.3958 27.3906 55.125C27.1198 54.8542 26.9062 54.5365 26.75 54.1719C26.5938 53.8073 26.5156 53.4167 26.5156 53C26.5156 52.7188 26.5521 52.4531 26.625 52.2031C26.6979 51.9427 26.8073 51.6927 26.9531 51.4531L35.8438 35.9844C35.9479 35.7969 36 35.6146 36 35.4375V26H34V24H46V26H44V35.4375C44 35.6146 44.0417 35.7812 44.125 35.9375C44.2083 36.0833 44.2969 36.2292 44.3906 36.375C44.0573 36.4688 43.7292 36.5729 43.4062 36.6875C43.0938 36.8021 42.7865 36.9323 42.4844 37.0781C42.3281 36.8698 42.2083 36.6094 42.125 36.2969C42.0417 35.9844 42 35.6979 42 35.4375V26H38V35.4375C38 35.9792 37.8542 36.5 37.5625 37L32.4062 46H36.0781C36.0573 46.2083 36.0365 46.4167 36.0156 46.625C36.0052 46.8333 36 47.0417 36 47.25Z" fill="#854CC7"></path>
</svg>

<svg xmlns="http://www.w3.org/2000/svg" viewBox="0 0 80 80"><path fill="none" d="M0 0h80v80H0z"/><circle cx="40" cy="40" r="40" fill="#854CC7" fill-opacity=".05"/><path d="M47 38c1.24 0 2.406.24 3.5.719a9.028 9.028 0 0 1 2.86 1.922A9.028 9.028 0 0 1 55.28 43.5c.48 1.094.719 2.26.719 3.5 0 1.24-.24 2.406-.719 3.5a9.028 9.028 0 0 1-1.922 2.86 9.25 9.25 0 0 1-2.859 1.937A8.792 8.792 0 0 1 47 56a8.792 8.792 0 0 1-3.5-.703 9.25 9.25 0 0 1-2.86-1.938 9.25 9.25 0 0 1-1.937-2.859A8.792 8.792 0 0 1 38 47c0-1.24.234-2.406.703-3.5a9.25 9.25 0 0 1 1.938-2.86A9.028 9.028 0 0 1 43.5 38.72 8.625 8.625 0 0 1 47 38zm1 16.438a7.792 7.792 0 0 0 2.36-.735 7.7 7.7 0 0 0 1.937-1.406 7.399 7.399 0 0 0 1.39-1.938c.376-.729.626-1.515.75-2.359H52v-2h2.438a7.535 7.535 0 0 0-.75-2.36 7.399 7.399 0 0 0-1.391-1.937 7.399 7.399 0 0 0-1.938-1.39 7.535 7.535 0 0 0-2.359-.75V42h-2v-2.438a7.535 7.535 0 0 0-2.36.75 7.399 7.399 0 0 0-1.937 1.391 7.7 7.7 0 0 0-1.406 1.938A7.792 7.792 0 0 0 39.563 46H42v2h-2.438c.126.844.37 1.63.735 2.36a7.7 7.7 0 0 0 1.406 1.937 7.7 7.7 0 0 0 1.938 1.406c.729.365 1.515.61 2.359.734V52h2v2.438zM45 47c0-.396.104-.76.313-1.094.218-.333.505-.578.859-.734L51 43l-2.172 4.828c-.156.354-.4.64-.734.86A2.025 2.025 0 0 1 47 49c-.281 0-.542-.052-.781-.156a2.208 2.208 0 0 1-.64-.422 2.208 2.208 0 0 1-.423-.64c-.104-.24-.156-.5-.156-.782zm-9 .25a11.293 11.293 0 0 0 1.094 4.86c.354.739.791 1.442 1.312 2.109.521.656 1.11 1.25 1.766 1.781h-10.64c-.417 0-.808-.078-1.173-.234a3.203 3.203 0 0 1-.968-.641 3.009 3.009 0 0 1-.641-.953A2.944 2.944 0 0 1 26.516 53c0-.281.036-.547.109-.797.073-.26.182-.51.328-.75l8.89-15.469c.105-.187.157-.37.157-.547V26h-2v-2h12v2h-2v9.438c0 .177.042.343.125.5.083.145.172.291.266.437-.334.094-.662.198-.985.313-.312.114-.62.244-.922.39a2.257 2.257 0 0 1-.359-.781 3.359 3.359 0 0 1-.125-.86V26h-4v9.438c0 .541-.146 1.062-.438 1.562l-5.156 9h3.672l-.062.625c-.01.208-.016.417-.016.625z" fill="#854CC7"/></svg>
